X: 15727
T: Golden Stud, The
R: reel
M: 4/4
K: Eminor
|:E2EA F2 FA|G2 GB ABcA|BGGB ABcA|BAGB AGFD|
E2EA F2 FA|G2 GB ABcA|BGGB ABcA|G2 F2 E4:|
|:c4 cBAc|BGGG DGBG|AFFF DFAF|G2F2 EGAB|
c4 cBAc|BGGG DGBG|AFFF DFAF|G2F2 E4:|

